workspaces/osm/styles/symbols/hunting_stand.svg

<svg width="14" height="14" version="1.1" viewBox="0 0 14 14" xmlns="http://www.w3.org/2000/svg"><path d="m3 0v1.25c2.6667 0.66667 5.3333 1.3333 8 2v-1.25c-2.6667-0.66667-5.3333-1.3333-8-2zm1 2.5v4.5h6v-3l-6-1.5zm-1 5.5v1h1c-0.33333 1.6667-0.66667 3.3333-1 5h1.5c0.33333-1.6667 0.66667-3.3333 1-5h3c0.34375 1.6667 0.6875 3.3333 1.0312 5h1.5c-0.34375-1.6667-0.6875-3.3333-1.0312-5h1v-1h-8z"/></svg>

<svg xmlns="http://www.w3.org/2000/svg" width="14" height="14" viewBox="0 0 14 14">
  <path d="m 3,0 0,1.25 8,2 L 11,2 z M 4,2.5 4,7 10,7 10,4 z M 3,8 l 0,1 1,0 -1,5 1.5,0 1,-5 3,0 1.03125,5 1.5,0 L 10,9 11,9 11,8 z"/>
</svg>
